X:147
T:Two and a Bump
M:6/8
L:1/8
C:© Paul Gitlitz 1996
R:Jig
B:Giblitz Fancy
N:Marrlow's response to an inquiry of the number of children she had, during her pregnancy with Sarah, my third Godchild.
D:"To Have and To Hold" available @ www.glitchless.net
K:Em
"Em"EGE B,2E|"D"F2E "Em"B,2D|E_E=E "G"GFG|"A7"AGA "B7"B2A|!
"Em"EGE B,2E|"D"F2E "Em"B,2A|1BcB "A7"A2G|"B7"FGF "Em"E2D:|2B2_B"A"A2G|"B7"FGF "Em"E2A|!
|:"G"Beg "D"f2e|"B7"^def "Em"e2B|eBe "F#m"fBf|"G"gBg "B7"b3|!
"Edim"_bge =Beg|"B7"fe^d "Em"e3|1BcB "A"A2G|"B7"FGF "Em"E2A:|2B2_B"A"A2G|"B7"FGF "Em"E3|]!
W: Tag
3"Em"e2e "Edim"geg|"Gdim"_bgb"Bbdim" _d'3|"Em"bge Beg|"B7"fe_e "Em"=e3|]
